assets/icons/exam-type/exam-fails.svg

<svg fill="none" viewBox="0 0 24 24" xmlns="http://www.w3.org/2000/svg" class="Icon Icon-exam-fails"><g stroke="currentColor" stroke-linecap="round" stroke-linejoin="round" stroke-width="2"><path d="m14 2h-8c-.53043 0-1.03914.21071-1.41421.58579-.37508.37507-.58579.88378-.58579 1.41421v16c0 .5304.21071 1.0391.58579 1.4142.37507.3751.88378.5858 1.41421.5858h12c.5304 0 1.0391-.2107 1.4142-.5858s.5858-.8838.5858-1.4142v-12z"/><path d="m14 2v6h6"/><path d="m9.00009 17.9999 5.99991-5.9999"/><path d="m9 12 5.9999 5.9999"/></g></svg>

<svg stroke="currentColor" viewBox="0 0 24 24" fill="none" xmlns="http://www.w3.org/2000/svg" class="Icon Icon-exam-fails"> <path d="M14 2H6C5.46957 2 4.96086 2.21071 4.58579 2.58579C4.21071 2.96086 4 3.46957 4 4V20C4 20.5304 4.21071 21.0391 4.58579 21.4142C4.96086 21.7893 5.46957 22 6 22H18C18.5304 22 19.0391 21.7893 19.4142 21.4142C19.7893 21.0391 20 20.5304 20 20V8L14 2Z" stroke-width="2" stroke-linecap="round" stroke-linejoin="round"/> <path d="M14 2V8H20" stroke-width="2" stroke-linecap="round" stroke-linejoin="round"/> <path d="M9.00009 17.9999L15 12" stroke-width="2" stroke-linecap="round" stroke-linejoin="round"/> <path d="M9 12L14.9999 17.9999" stroke-width="2" stroke-linecap="round" stroke-linejoin="round"/> </svg>
